X: 40366
T: Tom Dowd's Favourite
R: reel
M: 4/4
K: Eminor
|:GA|BEED GEDE|GEDE G3 A|BEED GE D2|1 BddB A2:|2 BddB AcBA||
|:~G3 G GBdB|~G3 B AEEF|G2 GF GBdg|1 e2 dB AcBA:|2 e2 dB A2||

